app/assets/icons/add.svg

<?xml version="1.0" encoding="UTF-8" standalone="no"?>
<svg width="512px" height="512px" viewBox="0 0 512 512" version="1.1" xmlns="http://www.w3.org/2000/svg" xmlns:xlink="http://www.w3.org/1999/xlink" xmlns:sketch="http://www.bohemiancoding.com/sketch/ns">
    <!-- Generator: Sketch 3.3.3 (12072) - http://www.bohemiancoding.com/sketch -->
    <title>add</title>
    <desc>Created with Sketch.</desc>
    <defs></defs>
    <g id="Page-1" stroke="none" stroke-width="1" fill="none" fill-rule="evenodd" sketch:type="MSPage">
        <g id="add" sketch:type="MSArtboardGroup" fill="#000000">
            <g sketch:type="MSLayerGroup" transform="translate(46.000000, 46.000000)" id="Shape">
                <path d="M170,170 L170,40 C170,17.90861 187.90861,0 210,0 C232.09139,0 250,17.90861 250,40 L250,170 L380,170 C402.09139,170 420,187.90861 420,210 C420,232.09139 402.09139,250 380,250 L250,250 L250,380 C250,402.09139 232.09139,420 210,420 C187.90861,420 170,402.09139 170,380 L170,250 L40,250 C17.90861,250 0,232.09139 0,210 C0,187.90861 17.90861,170 40,170 L170,170 Z" sketch:type="MSShapeGroup"></path>
            </g>
        </g>
    </g>
</svg>

<?xml version="1.0" encoding="utf-8"?>
<!-- Generator: Adobe Illustrator 19.2.1, SVG Export Plug-In . SVG Version: 6.00 Build 0)  -->
<svg version="1.1" id="Calque_1" xmlns:sketch="http://www.bohemiancoding.com/sketch/ns"
	 xmlns="http://www.w3.org/2000/svg" xmlns:xlink="http://www.w3.org/1999/xlink" x="0px" y="0px" width="512px" height="512px"
	 viewBox="0 0 512 512" enable-background="new 0 0 512 512" xml:space="preserve">
<title>add</title>
<desc>Created with Sketch.</desc>
<g id="Page-1" sketch:type="MSPage">
	<g id="add" sketch:type="MSArtboardGroup">
		<g id="Shape" transform="translate(46.000000, 46.000000)" sketch:type="MSLayerGroup">
			<path sketch:type="MSShapeGroup" d="M170,170V40c0-22.1,17.9-40,40-40s40,17.9,40,40v130h130c22.1,0,40,17.9,40,40
				s-17.9,40-40,40H250v130c0,22.1-17.9,40-40,40s-40-17.9-40-40V250H40c-22.1,0-40-17.9-40-40s17.9-40,40-40H170z"/>
		</g>
	</g>
</g>
</svg>
